X: 2
T: The Silver Thisle Ball
T: 3 x 32S 3C set (Between the Rivers)
P: Beneath the Willow
C: Dave Wiesler
N: copyright Dave Wiesler - 2000
B: Between the Rivers, pg. 25
C: transcribed by Peter Price, 2007/01/11
L: 1/8
M: 4/4
R: strathspey
K: C
a2 | "Dm"a2 d2 "Gm"gf ed | "A"^cd ec A2 =Bc | "Dm"df ef "Gm"g2 f2 | "A"Tf2 e4 a2 |
"Dm"a2 d2 "Gm"(_b4  |"C" b2) c2"F" a4 | "Gm"gf ed ^cd cd | "A"e6 :|
AG | "D"^F3 E D2 (c2 | c2) _BA "Gm"B2 GF | "C"E3 D C2 (_B2 | B2) AG "F"A2 ed|
"A"^c3 =B A2 (g2 | g2) fe "Dm"f2 dc | "G"B3 A G2 (f2 | "E7"f2) ed ^c2 "A"a2|
"Dm"a2 d2 "Gm"gf ed | "A"^cd ec A2 =Bc |"Dm"df ef "Gm"g2 f2 |"A"Tf2 e4 a2 |
"D/F#"ad ^cd "Gm"_bd gf |"C/E"ec =Bc "F"ac _ba | "Gm"gf ed A2 "A"^c2 | "Dm"d6 ||
